src/images/icons/feature-open-source.svg

<svg width="134px" height="134px" viewBox="0 0 134 134" xmlns="http://www.w3.org/2000/svg">
    <g stroke="none" stroke-width="1" fill="none" fill-rule="evenodd">
        <path d="M74.5822052,52.9983005 C74.2067598,53.9251929 74,54.9384508 74,56 C74,60.418278 77.581722,64 82,64 C83.0612698,64 84.0742738,63.793349 85.0009677,63.4180912 L85,80 C85,82.7614237 82.7614237,85 80,85 L50,85 C47.2385763,85 45,82.7614237 45,80 L45,58 C45,55.2385763 47.2385763,53 50,53 L74.5822052,52.9983005 Z M68.84375,60 L65.8821023,60 L61.1946023,77.4147727 L64.15625,77.4147727 L68.84375,60 Z M59.2840909,63.5653409 L49,67.8835227 L49,70.8380682 L59.2840909,75.15625 L59.2840909,71.9318182 L52.60025,69.4292727 L52.60025,69.2932727 L59.2840909,66.796875 L59.2840909,63.5653409 Z M70.7471591,63.5653409 L70.7471591,66.796875 L77.43725,69.2962727 L77.43725,69.4262727 L70.7471591,71.9318182 L70.7471591,75.15625 L81.03125,70.8380682 L81.03125,67.8835227 L70.7471591,63.5653409 Z M82,49 C85.8659932,49 89,52.1340068 89,56 C89,59.8659932 85.8659932,63 82,63 C78.1340068,63 75,59.8659932 75,56 C75,52.1340068 78.1340068,49 82,49 Z M84.5,51 L79.5,51 C79.2545401,51 79.0503916,51.1768752 79.0080557,51.4101244 L79,51.5 L78.9998705,55.1338571 C78.7328945,55.2883478 78.5439704,55.5627315 78.5067277,55.8833789 L78.5,56 L78.5,60 C78.5,60.5128358 78.8860402,60.9355072 79.3833789,60.9932723 L79.5,61 L84.5,61 C85.0128358,61 85.4355072,60.6139598 85.4932723,60.1166211 L85.5,60 L85.5,56 C85.5,55.4477153 85.0522847,55 84.5,55 L80,55 L80,52 L84,52 L84,52.5 L84.0080557,52.5898756 C84.0503916,52.8231248 84.2545401,53 84.5,53 C84.7454599,53 84.9496084,52.8231248 84.9919443,52.5898756 L85,52.5 L85,51.5 L84.9919443,51.4101244 C84.9549004,51.2060313 84.7939687,51.0450996 84.5898756,51.0080557 L84.5,51 Z" fill="#D9DCF2"></path>
    </g>
</svg>

<svg xmlns="http://www.w3.org/2000/svg" viewBox="0 0 134 134">
  <path
    d="M74.582 52.998a8 8 0 0010.419 10.42L85 80a5 5 0 01-5 5H50a5 5 0 01-5-5V58a5 5 0 015-5l24.582-.002zM68.844 60h-2.962l-4.687 17.415h2.961L68.844 60zm-9.56 3.565L49 67.884v2.954l10.284 4.318v-3.224L52.6 69.429v-.136l6.684-2.496v-3.232zm11.463 0v3.232l6.69 2.5v.13l-6.69 2.505v3.224l10.284-4.318v-2.954l-10.284-4.319zM82 49a7 7 0 110 14 7 7 0 010-14zm2.5 2h-5a.5.5 0 00-.492.41L79 51.5v3.634a1 1 0 00-.493.75L78.5 56v4a1 1 0 00.883.993L79.5 61h5a1 1 0 00.993-.883L85.5 60v-4a1 1 0 00-1-1H80v-3h4v.5l.008.09a.5.5 0 00.984 0L85 52.5v-1l-.008-.09a.5.5 0 00-.402-.402L84.5 51z"
    fill="#D9DCF2" fill-rule="evenodd" />
</svg>
